src/images/footer/github.svg

<svg width="28" height="28" viewBox="0 0 28 28" fill="none" xmlns="http://www.w3.org/2000/svg">
<g clip-path="url(#clip0)">
<path d="M9.07266 21.7328C9.07266 21.8422 8.94687 21.9297 8.78828 21.9297C8.60781 21.9461 8.48203 21.8586 8.48203 21.7328C8.48203 21.6234 8.60781 21.5359 8.76641 21.5359C8.93047 21.5195 9.07266 21.607 9.07266 21.7328ZM7.37188 21.4867C7.33359 21.5961 7.44297 21.7219 7.60703 21.7547C7.74922 21.8094 7.91328 21.7547 7.94609 21.6453C7.97891 21.5359 7.875 21.4102 7.71094 21.3609C7.56875 21.3227 7.41016 21.3773 7.37188 21.4867ZM9.78906 21.3938C9.63047 21.432 9.52109 21.5359 9.5375 21.6617C9.55391 21.7711 9.69609 21.8422 9.86016 21.8039C10.0188 21.7656 10.1281 21.6617 10.1117 21.5523C10.0953 21.4484 9.94766 21.3773 9.78906 21.3938ZM13.3875 0.4375C5.80234 0.4375 0 6.19609 0 13.7813C0 19.8461 3.81719 25.0359 9.26953 26.8625C9.96953 26.9883 10.2156 26.5563 10.2156 26.2008C10.2156 25.8617 10.1992 23.9914 10.1992 22.843C10.1992 22.843 6.37109 23.6633 5.56719 21.2133C5.56719 21.2133 4.94375 19.6219 4.04688 19.2117C4.04688 19.2117 2.79453 18.3531 4.13438 18.3695C4.13438 18.3695 5.49609 18.4789 6.24531 19.7805C7.44297 21.8914 9.45 21.2844 10.232 20.9234C10.3578 20.0484 10.7133 19.4414 11.107 19.0805C8.05 18.7414 4.96563 18.2984 4.96563 13.0375C4.96563 11.5336 5.38125 10.7789 6.25625 9.81641C6.11406 9.46094 5.64922 7.99531 6.39844 6.10313C7.54141 5.74766 10.1719 7.57969 10.1719 7.57969C11.2656 7.27344 12.4414 7.11484 13.6062 7.11484C14.7711 7.11484 15.9469 7.27344 17.0406 7.57969C17.0406 7.57969 19.6711 5.74219 20.8141 6.10313C21.5633 8.00078 21.0984 9.46094 20.9563 9.81641C21.8313 10.7844 22.3672 11.5391 22.3672 13.0375C22.3672 18.3148 19.1461 18.7359 16.0891 19.0805C16.5922 19.5125 17.0188 20.3328 17.0188 21.618C17.0188 23.4609 17.0023 25.7414 17.0023 26.1898C17.0023 26.5453 17.2539 26.9773 17.9484 26.8516C23.4172 25.0359 27.125 19.8461 27.125 13.7813C27.125 6.19609 20.9727 0.4375 13.3875 0.4375ZM5.31562 19.2992C5.24453 19.3539 5.26094 19.4797 5.35391 19.5836C5.44141 19.6711 5.56719 19.7094 5.63828 19.6383C5.70937 19.5836 5.69297 19.4578 5.6 19.3539C5.5125 19.2664 5.38672 19.2281 5.31562 19.2992ZM4.725 18.8563C4.68672 18.9273 4.74141 19.0148 4.85078 19.0695C4.93828 19.1242 5.04766 19.1078 5.08594 19.0313C5.12422 18.9602 5.06953 18.8727 4.96016 18.818C4.85078 18.7852 4.76328 18.8016 4.725 18.8563ZM6.49688 20.8031C6.40938 20.8742 6.44219 21.0383 6.56797 21.1422C6.69375 21.268 6.85234 21.2844 6.92344 21.1969C6.99453 21.1258 6.96172 20.9617 6.85234 20.8578C6.73203 20.732 6.56797 20.7156 6.49688 20.8031ZM5.87344 19.9992C5.78594 20.0539 5.78594 20.1961 5.87344 20.3219C5.96094 20.4477 6.10859 20.5023 6.17969 20.4477C6.26719 20.3766 6.26719 20.2344 6.17969 20.1086C6.10313 19.9828 5.96094 19.9281 5.87344 19.9992Z" fill="#52525B"/>
</g>
<defs>
<clipPath id="clip0">
<rect width="27.125" height="28" fill="white"/>
</clipPath>
</defs>
</svg>

<svg width="28" height="28" fill="none" xmlns="http://www.w3.org/2000/svg"><g clip-path="url(#clip0)"><path d="M9.073 21.733c0 .11-.126.197-.285.197-.18.016-.306-.071-.306-.197 0-.11.126-.197.284-.197.164-.017.307.071.307.197zm-1.701-.246c-.038.11.071.235.235.268.142.054.306 0 .34-.11.032-.11-.072-.235-.236-.284-.142-.038-.3.016-.34.126zm2.417-.093c-.159.038-.268.142-.252.268.017.11.16.18.323.142.159-.038.268-.142.252-.252-.017-.104-.164-.175-.323-.158zM13.387.438C5.802.438 0 6.196 0 13.78c0 6.065 3.817 11.255 9.27 13.082.7.125.946-.307.946-.662 0-.34-.017-2.21-.017-3.358 0 0-3.828.82-4.632-1.63 0 0-.623-1.591-1.52-2.001 0 0-1.252-.859.087-.843 0 0 1.362.11 2.111 1.412 1.198 2.11 3.205 1.503 3.987 1.142.126-.875.481-1.482.875-1.842-3.057-.34-6.141-.783-6.141-6.043 0-1.504.415-2.26 1.29-3.222-.142-.355-.607-1.82.142-3.713 1.143-.355 3.774 1.477 3.774 1.477a12.848 12.848 0 013.434-.465c1.165 0 2.34.158 3.435.465 0 0 2.63-1.838 3.773-1.477.75 1.898.284 3.358.142 3.713.875.968 1.411 1.723 1.411 3.221 0 5.278-3.22 5.699-6.278 6.043.503.433.93 1.253.93 2.538 0 1.843-.017 4.123-.017 4.572 0 .355.252.787.946.662 5.47-1.816 9.177-7.006 9.177-13.07 0-7.586-6.152-13.345-13.738-13.345zM5.316 19.299c-.071.055-.055.18.038.285.087.087.213.125.284.054.071-.054.055-.18-.038-.284-.087-.088-.213-.126-.284-.055zm-.591-.443c-.038.071.016.159.126.213.087.055.197.039.235-.038.038-.07-.016-.158-.126-.213-.11-.033-.197-.016-.235.038zm1.772 1.947c-.088.071-.055.235.071.34.126.125.284.141.355.054.072-.071.039-.235-.07-.34-.121-.125-.285-.141-.356-.054zM5.873 20c-.087.055-.087.197 0 .323.088.126.236.18.307.126.087-.071.087-.214 0-.34-.077-.125-.22-.18-.307-.109z" fill="#52525B"/></g><defs><clipPath id="clip0"><path fill="#fff" d="M0 0h27.125v28H0z"/></clipPath></defs></svg>
